svg/l/MX.svg

<svg width="32" height="24" viewBox="0 0 32 24" fill="none" xmlns="http://www.w3.org/2000/svg">
<g clip-path="url(#clip0_270_67506)">
<rect width="32" height="24" fill="white"/>
<path fill-rule="evenodd" clip-rule="evenodd" d="M22 0H32V24H22V0Z" fill="#D9071E"/>
<path fill-rule="evenodd" clip-rule="evenodd" d="M0 0H12V24H0V0Z" fill="#006923"/>
<path fill-rule="evenodd" clip-rule="evenodd" d="M10 0H22V24H10V0Z" fill="white"/>
<path fill-rule="evenodd" clip-rule="evenodd" d="M13.0555 8.34179C12.9492 8.79695 13.0184 8.90439 13.5323 8.90439C13.559 8.90439 13.6014 8.97982 13.6474 9.06188C13.6979 9.1519 13.753 9.24989 13.7967 9.26503C13.778 9.28986 13.5826 9.643 13.5816 10.265C13.5815 10.3931 13.641 10.6042 13.6983 10.8069C13.7605 11.0275 13.82 11.2381 13.7967 11.3213C13.7588 11.4569 13.5889 11.3092 13.4573 11.1948C13.382 11.1293 13.3193 11.0747 13.3008 11.0902C13.2068 11.1693 13.1583 10.5432 13.129 10.1649C13.1159 9.99641 13.1067 9.87709 13.0989 9.89102C13.0661 9.81867 13.0527 9.72978 13.0395 9.64196C13.0107 9.45098 12.9827 9.26503 12.7573 9.26503H12.1772V9.69213C12.1772 9.69213 12.5129 9.69213 12.5129 10.4867C12.5184 10.6055 12.6751 11.6503 13.0555 11.6557C12.8326 11.6607 12.8342 11.7052 12.8352 11.7312L12.8353 11.7359C12.8353 12.3751 13.3695 12.4442 13.8688 12.2637C14.1688 12.1553 14.4874 11.9436 14.7259 11.6826C15.0625 11.3144 15.1041 10.8376 14.6621 10.5762C14.5047 10.4831 14.334 10.4471 14.0952 10.4338C14.1424 10.2937 14.0977 10.1685 14.0628 10.0709C14.0337 9.98921 14.0114 9.92681 14.0555 9.89102C14.5561 9.485 14.6007 9.11078 14.2365 8.77511C14.1892 8.73156 14.1435 8.67252 14.0964 8.61175L14.0964 8.61175C14.0077 8.49719 13.9142 8.37648 13.7967 8.34179C13.851 8.23227 13.9241 8.09958 14.0159 7.94671L13.1586 7.43195C13.0032 7.69081 13.0291 7.89328 13.0518 8.06973C13.0642 8.16658 13.0756 8.2556 13.0555 8.34179ZM13.9878 11.0079L13.9723 11.0246L13.9828 11.015C13.9845 11.0122 13.9861 11.0098 13.9878 11.0079ZM13.5342 11.3213C13.5339 11.3214 13.5345 11.3213 13.5356 11.3211L13.5358 11.321L13.5454 11.3192C13.5415 11.3198 13.5379 11.3206 13.5358 11.321L13.5342 11.3213ZM13.0989 11.6552C13.0872 11.6552 13.076 11.6553 13.0653 11.6555L13.0837 11.6551L13.0989 11.6552Z" fill="#A8AC71"/>
<path fill-rule="evenodd" clip-rule="evenodd" d="M14.384 7.91339C14.384 7.91339 13.6972 8.44605 13.8257 9.01393C13.9541 9.58181 15.3076 9.01393 15.144 8.46366C14.9804 7.91339 14.384 7.91339 14.384 7.91339Z" fill="#FCCA3D"/>
<path fill-rule="evenodd" clip-rule="evenodd" d="M19.2664 12.4029C19.2664 12.4029 20.1914 9.66155 18.7211 8.24251C17.2507 6.82347 15.5516 6.91843 15.5516 6.91843C15.5516 6.91843 15.0623 7.28197 15.5516 7.55923C16.0409 7.83649 15.8359 8.10233 15.8359 8.10233C15.8359 8.10233 15.0164 7.27029 14.4725 7.7564C13.9285 8.24251 14.9803 8.16853 14.8689 8.53455C14.7576 8.90057 14.2859 10.5256 14.9751 11.3461C15.6644 12.1665 14.3235 11.9885 14.5962 11.9885C14.8689 11.9885 15.8359 12.1794 15.8359 11.9885C15.8359 11.7975 16.172 12.7309 16.4597 12.7309C16.7474 12.7309 16.9695 12.4029 16.9695 12.4029C16.9695 12.4029 17.3728 12.7309 17.6185 12.7309C17.8642 12.7309 18.7211 12.5163 18.7211 12.5163L17.1016 11.1517C17.1016 11.1517 17.1992 10.5499 16.9695 10.4196C16.7397 10.2893 18.8112 11.574 18.9735 11.9885C19.1357 12.4029 19.2664 12.4029 19.2664 12.4029Z" fill="#8F4620"/>
<path d="M11.0664 11.7266C11.0664 11.7266 11.2166 11.248 11.3773 11.2148C11.5166 11.186 11.8094 11.4441 11.8094 11.4441C12.3297 14.334 13.5876 15.4627 15.6749 15.4627C17.7867 15.4627 19.0666 14.605 19.8135 11.9398C19.8135 11.9398 20.2106 11.5343 20.3507 11.5794C20.5032 11.6284 20.6943 12.1649 20.6943 12.1649C19.8375 15.2225 18.2185 16.5839 15.6749 16.5839C13.1067 16.5839 11.6638 15.0448 11.0664 11.7266Z" fill="#9FAB2F"/>
<path fill-rule="evenodd" clip-rule="evenodd" d="M13.3341 13.6564C13.3341 13.6564 16.3385 14.2938 17.5243 14.2938C18.7102 14.2938 16.4839 15.2616 15.6152 15.2616C15.2352 15.2616 14.7772 15.0312 14.2412 14.5705C14.1451 14.488 14.2382 14.3032 13.9455 14.3007C13.5374 14.2971 13.0304 14.2014 13.0789 14.1431C13.125 14.0876 13.7188 14.0708 13.6616 14.0102C13.5672 13.9101 13.3341 13.6564 13.3341 13.6564Z" fill="#2FC2DC"/>
<rect x="14.6666" y="14.1" width="2" height="1.07143" rx="0.166667" fill="#F9AA51"/>
<path d="M12.1754 12.1359C12.1754 12.1359 12.1754 11.7608 12.4294 11.5616C12.7205 11.3331 12.994 11.5616 12.994 11.5616C14.0595 13.0802 15.6528 13.5798 17.8812 13.0584C17.8812 13.0584 18.5475 13.2761 18.581 13.4191C18.6234 13.6007 18.109 14.0321 18.109 14.0321C15.504 14.6416 13.4904 14.0102 12.1754 12.1359Z" fill="#259485"/>
<path fill-rule="evenodd" clip-rule="evenodd" d="M16.5913 12.3503C16.5913 12.3503 15.3776 12.9891 15.7822 12.9891C16.1867 12.9891 17.77 13.3086 17.4619 12.9891C17.1538 12.6697 16.5913 12.3503 16.5913 12.3503Z" fill="#FCCA3D"/>
<path fill-rule="evenodd" clip-rule="evenodd" d="M15.1563 11.5882C15.1563 11.5882 14.9257 10.9222 14.4458 10.9222C13.9659 10.9222 14.1014 11.4686 13.8706 11.4686C13.6398 11.4686 14.0856 11.853 14.2843 11.853C14.483 11.853 15.1563 11.5882 15.1563 11.5882Z" fill="#FCCA3D"/>
</g>
<defs>
<clipPath id="clip0_270_67506">
<rect width="32" height="24" fill="white"/>
</clipPath>
</defs>
</svg>

<svg width="32" height="24" fill="none" xmlns="http://www.w3.org/2000/svg">
  <mask id="a" maskUnits="userSpaceOnUse" x="0" y="0" width="32" height="24">
    <path fill="#fff" d="M0 0h32v24H0z"/>
  </mask>
  <g mask="url(#a)">
    <path fill-rule="evenodd" clip-rule="evenodd" d="M22 0h10v24H22V0z" fill="#D9071E"/>
    <path fill-rule="evenodd" clip-rule="evenodd" d="M0 0h12v24H0V0z" fill="#006923"/>
    <path fill-rule="evenodd" clip-rule="evenodd" d="M10 0h12v24H10V0z" fill="#fff"/>
    <path fill-rule="evenodd" clip-rule="evenodd" d="M13.056 8.342c-.107.455-.038.562.476.562.027 0 .07.076.115.158.05.09.106.188.15.203-.019.025-.214.378-.215 1 0 .128.059.34.116.542.063.22.122.431.099.514-.038.136-.208-.012-.34-.126-.075-.066-.138-.12-.156-.105-.094.08-.143-.547-.172-.925-.013-.169-.022-.288-.03-.274a.968.968 0 01-.06-.249c-.028-.191-.056-.377-.282-.377h-.58v.427s.336 0 .336.795c.005.118.162 1.163.543 1.169-.223.005-.222.05-.22.075v.005c0 .64.534.708 1.033.528.3-.109.618-.32.857-.581.336-.369.378-.845-.064-1.107-.157-.093-.328-.129-.567-.142.047-.14.003-.265-.032-.363-.03-.082-.052-.144-.008-.18.501-.406.546-.78.181-1.116a1.311 1.311 0 01-.14-.163c-.088-.115-.182-.236-.3-.27.055-.11.128-.242.22-.395l-.857-.515c-.156.259-.13.461-.107.638.012.097.024.186.004.272zm.932 2.666l-.016.017.01-.01a.048.048 0 01.006-.007zm-.454.313h.002l.01-.002-.01.002h-.002zm-.435.334a1.8 1.8 0 00-.034 0h.034z" fill="#A8AC71"/>
    <path fill-rule="evenodd" clip-rule="evenodd" d="M14.384 7.913s-.687.533-.558 1.1c.128.569 1.482 0 1.318-.55-.164-.55-.76-.55-.76-.55z" fill="#FCCA3D"/>
    <path fill-rule="evenodd" clip-rule="evenodd" d="M19.266 12.403s.925-2.741-.545-4.16c-1.47-1.42-3.17-1.325-3.17-1.325s-.489.364 0 .641c.49.277.285.543.285.543s-.82-.832-1.364-.346c-.543.487.508.413.397.779-.111.366-.583 1.99.106 2.811.69.82-.652.643-.379.643s1.24.19 1.24 0c0-.192.336.742.624.742.287 0 .51-.328.51-.328s.403.328.649.328c.245 0 1.102-.215 1.102-.215l-1.62-1.364s.098-.602-.131-.732c-.23-.13 1.841 1.154 2.004 1.569.162.414.292.414.292.414z" fill="#8F4620"/>
    <path d="M11.066 11.727s.15-.479.311-.512c.14-.029.432.23.432.23.52 2.889 1.779 4.018 3.866 4.018 2.112 0 3.392-.858 4.139-3.523 0 0 .397-.406.537-.36.152.048.343.585.343.585-.857 3.058-2.476 4.419-5.02 4.419-2.567 0-4.01-1.54-4.608-4.857z" fill="#9FAB2F"/>
    <path fill-rule="evenodd" clip-rule="evenodd" d="M13.334 13.656s3.005.638 4.19.638c1.186 0-1.04.968-1.909.968-.38 0-.838-.23-1.374-.692-.096-.082-.003-.267-.296-.27-.408-.003-.915-.099-.866-.157.046-.055.64-.072.583-.133-.095-.1-.328-.354-.328-.354z" fill="#2FC2DC"/>
    <rect x="14.667" y="14.1" width="2" height="1.071" rx=".167" fill="#F9AA51"/>
    <path d="M12.175 12.136s0-.375.254-.574c.291-.229.565 0 .565 0 1.066 1.518 2.659 2.018 4.887 1.496 0 0 .666.218.7.361.042.182-.472.613-.472.613-2.605.61-4.619-.022-5.934-1.896z" fill="#259485"/>
    <path fill-rule="evenodd" clip-rule="evenodd" d="M16.591 12.35s-1.213.64-.809.64c.405 0 1.988.319 1.68 0-.308-.32-.87-.64-.87-.64zm-1.435-.762s-.23-.666-.71-.666-.345.547-.575.547c-.231 0 .215.384.413.384.199 0 .872-.265.872-.265z" fill="#FCCA3D"/>
  </g>
</svg>
